!!!OTL: Die Blume des Lebens.
!!!OTL-incipit: DES LEBENS BLUME BLUEHET SCHON
!!!COM: Nach Seidel
!!!ARE: Europa, Mitteleuropa, Deutschland
!!!SCT: F0774
!!!TXL: @@DE
!!!YEM: Copyright 1995, estate of Helmut Schaffrath.
**kern	**text
*ICvox	*
*clefG2	*
*M6/8	*
*k[b-e-]	*
*B-:	*
!LO:TX:a:t=Etwas lebhaft.	!
{8f	1._Des
=1	=1
4b-/	Le-
8f	-bens
4dd	Blume
8b-	.
=2	=2
4a	blü-
8cc	-het
4ee-}	ſchön,
{8cc	wenn
=3	=3
8b-L	ſie
8ffJ	.
8dd	der
8ccL	Morgen
8ggJ	.
8ee-	.
=4	=4
(4.dd	grüßt,
4cc)}	.
{8ff	wenn
=5	=5
8ee-L	We-
8ddJ	.
8cc	-ſte
8b-/L	freundlich
8aJ	.
8g	.
=6	=6
8fL	ſie
8gJ	.
8a	umwehn
4b-}	.
{8cc	und
=7	=7
(4.dd	Hoff-
8ddL)	.
8eenJ	.
8ff	-nung
=8	=8
(>4.f	ſie
16aqq)	.
4g	.
8f	er-
=9	=9
[>4.f	-ſchließt;
8f]	.
8r}	.
{8f	am
=10	=10
4ee-X	A-
8cc	-bend
8aL	matt
8ccJ	.
8f	um-
=11	=11
[4.ff	-laubt,
4ff]}	.
{8ee-	neigt
=12	=12
8ddL	ſie
8ccJ	.
8b-	ihr
8b-L	ʒar-
8ccJ	.
8a	-tes
=13	=13
[4.b-	Haupt.
4b-]}	.
!LO:TX:a:t=Alle.	!
{8f	Jhr
=14	=14
4cc/	Freunde,
8cc/	.
4cc/	laßt
8dd/	den
=15	=15
4ee-/	Morgen
8dd/	.
4cc/}	nicht
{8ff/	in
=16	=16
4ff/	Schlaf
8b-/	vor-
8b-/L	-ü-
8ccJ	.
8a	-ber
=17	=17
[4.b-/	gehn!
8b-/]	.
8r}	.
==	==
!!!AGN: Geselligkeits -, Moral - Lied
!!!ONB: ESAC (Essen Associative Code) Database: FINK
!!!AMT: compound duple
!!!AIN: vox
!!!EED: Helmut Schaffrath
!!!EEV: 1.0
!!Text: Herder
!!!RDF**kern: > = above
!!!GTL: Liedertafel- und Gesellschaftslieder
!!!source: Musikalischer Hausschatz der Deutschen. Eine Sammlung von über 1000 Liedern und Gesängen mit Singstimmen und Klavierbegleitung. Leipzig, Litterarisches Verlags-Haus.
!!!page: 531
!!!URL-scan: https://www.digitale-sammlungen.de/en/view/bsb11144622?page=481
!!!ENC: Anna Maria Matuszewska
!!!EEV: 2024/08/06
*-	*-
